icons/mobile/24/svg/autoplay-slash-24.svg

<svg width="24" height="24" viewBox="0 0 24 24" fill="none" xmlns="http://www.w3.org/2000/svg">
<path fill-rule="evenodd" clip-rule="evenodd" d="M2.25579 2.25579C2.5975 1.91408 3.15237 1.91408 3.49407 2.25579L21.7441 20.5058C22.0858 20.8475 22.0858 21.4024 21.7441 21.7441C21.4024 22.0858 20.8475 22.0858 20.5058 21.7441L18.5624 19.8007C16.8444 21.2308 14.6189 22.0711 12.1972 21.9951C7.13322 21.8361 2.97794 17.523 3.00091 12.456C3.01111 10.1682 3.8398 8.07504 5.20404 6.44232L2.25579 3.49407C1.91408 3.15237 1.91408 2.5975 2.25579 2.25579ZM6.43939 7.67767C5.38257 9.00169 4.74993 10.6779 4.74993 12.4999C4.74994 16.8498 8.35065 20.3738 12.7284 20.247C14.4372 20.1969 16.0249 19.5593 17.2988 18.537L13.6572 14.8954L11.9882 15.8495C11.2343 16.2805 10.2969 15.737 10.2968 14.8691V11.5351L6.43939 7.67767Z" fill="black"/>
<path d="M13.4999 4.02923C13.4999 3.49638 13.9967 3.10405 14.5175 3.21673C18.7895 4.14473 21.9999 7.95394 21.9999 12.4999C21.9999 14.2589 21.5117 15.9033 20.6747 17.3183L19.3769 16.0195C19.8678 15.0806 20.1772 14.0374 20.2382 12.9345C20.452 9.0497 17.7844 5.74329 14.1835 4.94232C13.7917 4.85422 13.4999 4.52976 13.4999 4.12786V4.02923Z" fill="black"/>
<path d="M16.1337 11.5175C16.7376 11.8624 16.8528 12.6226 16.496 13.1386L13.1992 9.84075L16.1337 11.5175Z" fill="black"/>
<path d="M10.3749 1.99993C10.7199 1.99993 10.9999 2.27993 10.9999 2.62493V6.99798C10.9999 7.18596 10.9196 7.33821 10.8036 7.4472L5.55169 2.19622C5.66169 2.08023 5.81392 1.99994 6.00091 1.99993H10.3749Z" fill="black"/>
</svg>

<!-- This Source Code Form is subject to the terms of the Mozilla Public
   - License, v. 2.0. If a copy of the MPL was not distributed with this
   - file, You can obtain one at http://mozilla.org/MPL/2.0/. -->
<svg xmlns="http://www.w3.org/2000/svg" width="24" height="24" fill="none" viewBox="0 0 24 24">
    <path fill="#000" fill-rule="evenodd" d="M2.256 2.256a.876.876 0 0 1 1.238 0l18.25 18.25a.876.876 0 0 1-1.238 1.238l-1.944-1.943a9.45 9.45 0 0 1-6.365 2.194c-5.064-.159-9.22-4.472-9.196-9.539a9.4 9.4 0 0 1 2.203-6.014L2.256 3.494a.876.876 0 0 1 0-1.238m4.183 5.422A7.7 7.7 0 0 0 4.75 12.5c0 4.35 3.602 7.874 7.98 7.747 1.708-.05 3.296-.688 4.57-1.71l-3.642-3.642-1.669.955a1.13 1.13 0 0 1-1.691-.98v-3.335z" clip-rule="evenodd" />
    <path fill="#000" d="M13.5 4.03a.837.837 0 0 1 1.018-.813C18.79 4.145 22 7.954 22 12.5a9.43 9.43 0 0 1-1.325 4.818l-1.298-1.299c.49-.938.8-1.982.861-3.084.214-3.885-2.454-7.192-6.054-7.993-.392-.088-.684-.412-.684-.814zm2.634 7.488c.604.344.719 1.105.362 1.62l-3.297-3.297zM10.375 2c.345 0 .625.28.625.625v4.373c0 .188-.08.34-.196.45L5.552 2.195A.6.6 0 0 1 6 2z" />
</svg>
